packages/core/src/svgs/dpet.svg

<svg width="24" height="24" viewBox="0 0 24 24" fill="none" xmlns="http://www.w3.org/2000/svg">
<g clip-path="url(#clip0_31_9482)">
<path d="M0 0H24V24H0V0Z" fill="#F0F3FA"/>
<path d="M7.50005 9.11568L7.07148 6.51426C7.05875 6.43494 7.07701 6.35376 7.12248 6.28754C7.16796 6.22132 7.23717 6.17513 7.31577 6.15854L9.09862 5.79426C9.22291 5.76854 9.3472 5.81568 9.42005 5.91854L9.8272 6.48426L10.1958 5.6614C10.2386 5.56283 10.3243 5.49854 10.4272 5.47711L15.2401 4.61997C15.4115 4.58997 15.5743 4.70568 15.6043 4.87711L16.0072 7.11854L15.4586 7.72711L15.7072 9.23568H17.4815C17.6529 9.23568 18.0001 9.29568 18.0001 9.4714V13.6028C18.0001 14.0828 17.5843 14.2885 17.3229 14.2885H16.5686C16.5686 16.4185 15.7758 17.8371 15.7758 17.9657V18.0171C15.7158 18.4157 15.8486 18.5828 14.8758 18.5828C13.9072 18.5828 13.1786 19.0457 13.1186 18.6428L13.0415 18.7157L13.0286 18.4285H7.28577C7.11005 18.4285 6.8572 18.1714 6.8572 18V14.1428H6.4972C6.31291 14.1428 5.98291 13.9457 5.98291 13.5685L6.39434 9.4114C6.40291 9.24426 6.54005 9.1114 6.71148 9.1114H7.50434L7.50005 9.11568Z" fill="#5B2C16"/>
<path d="M7.32859 8.78561L6.89574 6.18418C6.88313 6.10425 6.90197 6.02254 6.94832 5.95622C6.99467 5.88989 7.06492 5.8441 7.14431 5.82846L8.92288 5.46418C9.04716 5.43846 9.17145 5.48561 9.24431 5.59275L9.65145 6.15418L10.02 5.33132C10.0629 5.23703 10.1486 5.16846 10.2515 5.14703L15.0643 4.28989C15.2357 4.25989 15.3986 4.37561 15.4286 4.54703L15.8314 6.78846L15.2872 7.39703L15.5315 8.99989H17.1772C17.3486 8.99989 17.5715 9.04703 17.5715 9.21846V13.517C17.5715 13.7785 17.28 13.9885 17.0143 13.9885H16.7143V14.9313C17.0194 14.8813 17.332 14.9037 17.6268 14.9968C17.9216 15.0898 18.1904 15.2509 18.4114 15.467C19.0072 16.0456 18.8914 16.7142 18.7157 17.1513C18.2872 18.2227 17.1729 18.3085 16.5729 18.1499V18.6042C16.5086 19.0027 15.6557 19.2856 14.6872 19.2856C13.7143 19.2856 12.9172 19.0027 12.8572 18.5999V17.9999H7.10574C6.93431 17.9999 6.85716 17.7856 6.85716 17.6142V13.8427H6.31716C6.27462 13.8434 6.23239 13.8353 6.19306 13.819C6.15374 13.8028 6.11815 13.7787 6.08846 13.7482C6.05877 13.7177 6.03562 13.6815 6.02041 13.6417C6.00521 13.602 5.99827 13.5596 6.00002 13.517L6.21431 9.08132C6.22288 8.91418 6.36431 8.78132 6.53145 8.78132H7.32431L7.32859 8.78561Z" fill="#9A3A05"/>
<path d="M16.32 17.3014C16.1791 17.1863 16.0639 17.043 15.9818 16.8807C15.8996 16.7183 15.8524 16.5406 15.8431 16.359C15.8338 16.1773 15.8627 15.9957 15.9279 15.8258C15.993 15.656 16.093 15.5017 16.2214 15.3728C16.4228 15.1071 17.4686 14.79 18.2786 15.5743C18.5227 15.7968 18.6718 16.1048 18.695 16.4344C18.7181 16.7639 18.6135 17.0898 18.4028 17.3443C18.2649 17.4812 18.1008 17.589 17.9203 17.6613C17.7398 17.7335 17.5467 17.7687 17.3523 17.7647C17.158 17.7607 16.9664 17.7176 16.789 17.638C16.6117 17.5584 16.4522 17.4439 16.32 17.3014Z" fill="#FBCC21"/>
<path d="M16.6157 17.027C16.5189 16.9475 16.4398 16.8487 16.3834 16.7369C16.327 16.6252 16.2945 16.5028 16.2881 16.3778C16.2816 16.2528 16.3013 16.1278 16.3459 16.0108C16.3905 15.8938 16.4591 15.7874 16.5471 15.6984C16.7143 15.527 17.4043 15.2955 17.9614 15.8355C18.129 15.9897 18.2312 16.2021 18.2472 16.4292C18.2631 16.6563 18.1915 16.8809 18.0471 17.057C17.9521 17.1507 17.8392 17.2244 17.7152 17.2737C17.5912 17.3231 17.4585 17.3471 17.3251 17.3443C17.1916 17.3415 17.0601 17.312 16.9383 17.2575C16.8164 17.2029 16.7067 17.1246 16.6157 17.027Z" fill="#EA7E0F"/>
<path d="M16.4486 15.8229L16.71 16.0929L17.1 15.8186L17.0658 15.5015C16.8215 15.5229 16.6243 15.6172 16.5472 15.6986C16.509 15.7355 16.4758 15.7773 16.4486 15.8229Z" fill="#FCF7F2"/>
<path d="M17.3657 17.1686C16.23 17.0272 16.5128 16.2386 16.7957 15.8572C16.9586 15.66 17.3786 15.4414 17.7857 16.17C18.1928 16.9029 17.6743 17.1386 17.3657 17.1686Z" fill="#925100"/>
<path d="M16.6543 16.4915C16.6543 17.0101 17.1043 17.1515 17.3314 17.1558C17.5029 17.1601 18.0172 17.113 18 16.4915C17.9829 15.8701 17.4943 15.5615 17.3143 15.5615C17.1429 15.5615 16.6543 15.8444 16.6543 16.4915Z" fill="#FDE824"/>
<path d="M17.8114 16.4143C17.7343 16.3757 17.6185 16.53 17.5714 16.6114C17.5157 16.71 17.4343 16.9072 17.5543 16.8943C17.6743 16.8857 17.7771 16.7572 17.8114 16.6929C17.8414 16.6157 17.8885 16.4443 17.8114 16.41V16.4143ZM16.9971 15.9257C17.0485 15.96 16.9971 16.0972 16.9628 16.1572C16.92 16.23 16.8343 16.3586 16.7914 16.2772C16.7485 16.2 16.7914 16.0843 16.8171 16.0372C16.8557 15.9857 16.9457 15.8872 16.9971 15.9257Z" fill="#FBB107"/>
<path d="M16.2257 17.5371C15.6771 17.2285 15.6642 16.3928 15.7242 16.0156C15.5885 16.3012 15.5473 16.6226 15.6066 16.9332C15.666 17.2438 15.8228 17.5274 16.0542 17.7428C17.0399 18.3685 17.8542 17.9442 18.1371 17.6528C17.4299 17.9871 16.9071 17.9271 16.2257 17.5371Z" fill="#5E2009"/>
<path d="M16.5514 16.963L16.6157 17.0273C16.7068 17.1255 16.8167 17.2045 16.9389 17.2594C17.0612 17.3143 17.1932 17.344 17.3272 17.3468C17.4611 17.3496 17.5943 17.3254 17.7187 17.2757C17.8431 17.2259 17.9563 17.1516 18.0514 17.0573C18.1371 16.9673 18.2185 16.8087 18.2442 16.6201H17.9571C17.8714 16.7701 17.64 17.0787 17.4128 17.1344C17.22 17.1773 16.8128 17.0573 16.5514 16.963Z" fill="#E7FFF5"/>
<path d="M6.42859 10.7313V9.74125H8.03145L7.90716 8.87982L8.03145 8.82411L7.84716 7.57268L7.7143 7.5384L7.52145 6.33411L8.81145 6.0984L10.0629 6.68982L10.4829 5.82411L11.7814 5.63982L11.8586 6.19697L12.0172 6.43697L11.9829 5.63982L13.14 5.48125C13.2257 5.60982 13.5043 5.84983 13.6329 5.95268L13.8686 5.32697C14.1043 5.27983 14.6229 5.18554 14.8543 5.18125C15.0772 5.17697 15.1972 5.30982 15.2229 5.37411L15.45 6.81411L14.9057 7.57268L15.1886 9.74125H16.8686L17.1429 10.097V13.2855H16.2857V14.9998C15.3557 15.7113 15.3472 16.5813 15.4157 16.8941H13.9329C13.7025 16.8834 13.4743 16.9422 13.2778 17.063C13.0814 17.1838 12.9258 17.3609 12.8314 17.5713H7.67145L7.28573 17.327V16.1055H7.60716V15.2913C7.60716 14.9913 7.35002 14.7684 7.28573 14.6913V13.8427L6.42859 13.3755V11.9998H6.68573V11.2498C6.68573 10.9327 6.51002 10.7698 6.42859 10.7313Z" fill="#5C2307"/>
<path d="M8.85426 6.49297L7.66711 6.69869L7.81283 7.38869L8.02283 7.34583L8.32283 9.22297L8.06569 9.28297L8.19426 10.0073L9.3814 9.79297L9.13283 8.09583L10.17 9.3344L10.7871 7.8644L11.0743 9.57011L12.24 9.35583L12.1371 8.70011L11.88 8.74297L11.6014 6.82297L11.8543 6.78011L11.7214 6.08154L10.5814 6.25726L9.9214 7.82154L8.85426 6.49297Z" fill="#8D8C8E"/>
<path d="M8.79859 6.16718L7.61145 6.37289L7.75716 7.05861L7.96288 7.01575L8.26288 8.89289L8.00574 8.95718L8.13431 9.67718L9.32574 9.46289L9.07716 7.77004L10.1143 9.00432L10.7315 7.53861L11.0186 9.24004L12.1843 9.03004L12.0815 8.37004L11.8243 8.41289L11.5415 6.49718L11.7986 6.45432L11.6657 5.75146L10.5214 5.93146L9.86145 7.49575L8.79859 6.16718Z" fill="#F4F4F5"/>
<path d="M12.2314 6.74992L12.0942 6.0042L13.1228 5.87992L13.7014 6.82277L13.9971 5.72992L15 5.59277L15.0857 6.35563H14.8457L14.3185 7.72277L14.4085 8.33563L14.6614 8.29277L14.7685 8.96992L13.3242 9.23135L13.23 8.5542L13.4871 8.51135L13.3928 7.88134L12.4457 6.69849L12.2314 6.74992Z" fill="#8D8C8E"/>
<path d="M12.1842 6.41984L12.0514 5.66984L13.08 5.54984L13.6542 6.4927L13.9542 5.39555L14.9571 5.2627L15.0428 6.02127H14.8028L14.2714 7.3927L14.3614 8.00555L14.6185 7.9627L14.7257 8.63555L13.2814 8.90127L13.1828 8.21984L13.44 8.17698L13.3457 7.55127L12.4028 6.36841L12.1885 6.41984H12.1842Z" fill="#F4F4F5"/>
<path fill-rule="evenodd" clip-rule="evenodd" d="M11.5714 9.85693H12.2143V11.1426H11.5714V10.7141H9.64282V10.1955H9.75425V10.0069H11.5714V9.85693ZM6.85711 9.96836H8.76854C9.13282 9.96836 9.42854 10.2512 9.42854 10.6026V12.5141C9.42854 12.8655 9.12854 13.1484 8.76854 13.1484H6.64282V12.5055H6.85711V10.7141H6.64282V10.0712H6.85711V9.96836ZM7.71425 10.7141H8.57139V12.4626H7.71425V10.7141ZM9.64282 12.4284H12.2143V13.2855H9.64282V12.4284ZM11.5757 11.1555H10.1357V11.7855H11.5757V11.1555ZM16.5 9.85693H15.2143V10.7141H16.5V9.85693ZM16.5 12.4284H15.2143V13.2855H16.5V12.4284ZM14.1428 9.97265H14.7857V10.8812H14.1428V10.7098H12.4285V10.1955H14.1428V9.97265ZM13.9285 12.8569H12.6428V13.2855H13.9285V12.8569ZM13.2128 11.1426H14.5757V11.7855H13.2128V11.1426ZM13.2857 13.7141H13.98V14.0784H15.4285V13.7141H16.0714V14.9998H15.4285V14.7426H13.98V14.9998H13.2857V13.7141ZM10.74 14.0569H11.4771V14.0655H12.6428V14.0869H12.8571V14.9998H12V14.7426H11.4771V15.3255H12.3043V15.8569H11.4771V16.7141H12.8571V17.5712H10.2857V16.7141H10.74V14.7426H10.2857V14.0655H10.74V14.0569ZM8.26711 13.7141H7.28568V14.5712H7.72282V16.7141H7.49997V17.5712H8.78568V16.7141H8.46854V15.8784H9.44996C9.79282 15.8784 10.0714 15.5955 10.0714 15.2441V14.6869C10.0714 14.3441 9.79282 14.0569 9.44996 14.0569H8.46425V13.8298H8.26711V13.7141ZM9.26996 14.7426H8.57997V15.4198H9.26996V14.7426Z" fill="#BF5911"/>
<path fill-rule="evenodd" clip-rule="evenodd" d="M6.64282 9.85693H8.74282C9.11996 9.85693 9.42854 10.1355 9.42854 10.4741V12.2398C9.42854 12.5826 9.11996 12.8569 8.74282 12.8569H6.64282V12.1626H6.85711V10.4998H6.64282V9.85693ZM7.71425 10.4998H8.57139V12.2141H7.71425V10.4998Z" fill="#FEAE00"/>
<path d="M9.64282 9.85693H12.2143V10.9284H11.5714V10.4998H10.9285V11.1426H11.5714V11.5712H10.9285V12.2141H11.5714V11.9998H12.2143V12.8569H9.64282V12.2141H10.0714V10.4998H9.64282V9.85693ZM16.5 9.85693H15.2143V10.4998H15.4285V12.2141H15.2143V12.8569H16.5V12.2141H16.2857V10.4998H16.5V9.85693ZM12.8571 9.85693H14.7857V10.7141H14.1428V10.5426H13.7143V11.1426H14.5714V11.5712H13.7143V12.1712H13.9285V12.8569H12.6428V12.1712H12.8571V10.5426H12.4285V9.85693H12.8571Z" fill="#FBB200"/>
<path d="M10.2858 13.7144H12.8572V14.7858H12.2143V14.5715H11.5715V15.2144H12.3086V15.6429H11.5715V16.5001H12.2143V15.8572H12.8572V17.1429H10.2858V16.5001H10.7143V14.5715H10.2858V13.7144ZM13.2858 14.7858V13.7144H16.0715V14.7858H15.4286V14.3572H15.1886V16.2858H15.4286V17.0144H14.0401V16.2858H14.2715V14.3572H13.9286V14.7858H13.2858Z" fill="#FEAE00"/>
<path fill-rule="evenodd" clip-rule="evenodd" d="M7.28577 13.7144H9.44577C9.78862 13.7144 10.0715 14.0144 10.0715 14.3829V14.9744C10.0715 15.3429 9.79291 15.6429 9.44577 15.6429H8.57148V16.5001H8.78577V17.1429H7.50005V16.5001H7.71434V14.3829H7.28577V13.7144ZM8.57148 14.4686H9.13291V15.1458H8.57148V14.4686Z" fill="#FEAE00"/>
<path d="M16.3629 18.2786C16.3072 18.5743 15.5786 18.8058 14.6829 18.8058C13.7915 18.8058 13.0629 18.5743 13.0072 18.2786V17.5458C13.0415 17.2458 13.7786 17.0015 14.6829 17.0015C15.6043 17.0015 16.3501 17.25 16.3629 17.5586V18.2786Z" fill="#EA780B"/>
<path d="M15.9429 18.6171C15.4813 18.7732 14.9935 18.8372 14.5072 18.8057V18.0642C14.8501 17.9442 15.5915 17.7514 15.7458 17.9271C15.8743 18.0728 15.9258 18.3985 15.9386 18.6171H15.9429Z" fill="#F8A70A"/>
<path d="M14.6828 18.1329C15.6106 18.1329 16.3628 17.8796 16.3628 17.5672C16.3628 17.2547 15.6106 17.0015 14.6828 17.0015C13.755 17.0015 13.0028 17.2547 13.0028 17.5672C13.0028 17.8796 13.755 18.1329 14.6828 18.1329Z" fill="#FEC61D"/>
<path d="M14.6829 17.987C15.2983 17.987 15.7972 17.7989 15.7972 17.567C15.7972 17.335 15.2983 17.147 14.6829 17.147C14.0675 17.147 13.5686 17.335 13.5686 17.567C13.5686 17.7989 14.0675 17.987 14.6829 17.987Z" fill="#FF851F"/>
<path d="M14.6829 17.8369C15.0805 17.8369 15.4029 17.6949 15.4029 17.5198C15.4029 17.3446 15.0805 17.2026 14.6829 17.2026C14.2852 17.2026 13.9629 17.3446 13.9629 17.5198C13.9629 17.6949 14.2852 17.8369 14.6829 17.8369Z" fill="#FBE82D"/>
<path d="M17.0485 16.8126C17.1479 16.8126 17.2285 16.732 17.2285 16.6326C17.2285 16.5332 17.1479 16.4526 17.0485 16.4526C16.9491 16.4526 16.8685 16.5332 16.8685 16.6326C16.8685 16.732 16.9491 16.8126 17.0485 16.8126Z" fill="#FF9A01"/>
<path d="M17.4515 16.1701C17.5509 16.1701 17.6315 16.0895 17.6315 15.9901C17.6315 15.8906 17.5509 15.8101 17.4515 15.8101C17.3521 15.8101 17.2715 15.8906 17.2715 15.9901C17.2715 16.0895 17.3521 16.1701 17.4515 16.1701Z" fill="#FF9A01"/>
</g>
<defs>
<clipPath id="clip0_31_9482">
<rect width="24" height="24" fill="white"/>
</clipPath>
</defs>
</svg>

<svg xmlns="http://www.w3.org/2000/svg" width="24" height="24" fill="none" viewBox="0 0 24 24"><g clip-path="url(#a)"><path fill="#F0F3FA" d="M0 0h24v24H0z"/><path fill="#5B2C16" d="m7.5 9.116-.429-2.602a.313.313 0 0 1 .245-.355l1.783-.365a.31.31 0 0 1 .321.125l.407.565.369-.823a.32.32 0 0 1 .231-.184l4.813-.857a.315.315 0 0 1 .364.257l.403 2.242-.548.608.248 1.509h1.774c.172 0 .52.06.52.235v4.132c0 .48-.417.686-.678.686h-.754c0 2.13-.793 3.548-.793 3.677v.051c-.06.399.073.566-.9.566-.969 0-1.697.463-1.757.06l-.078.073-.012-.288H7.286c-.176 0-.429-.257-.429-.428v-3.857h-.36c-.184 0-.514-.197-.514-.575l.411-4.157a.316.316 0 0 1 .317-.3h.793z"/><path fill="#9A3A05" d="m7.329 8.786-.433-2.602a.313.313 0 0 1 .248-.356l1.779-.364a.31.31 0 0 1 .321.129l.407.561.369-.823a.33.33 0 0 1 .232-.184l4.812-.857a.315.315 0 0 1 .365.257l.402 2.241-.544.609L15.531 9h1.646c.172 0 .395.047.395.218v4.299c0 .261-.292.472-.558.472h-.3v.942a1.97 1.97 0 0 1 1.697.536c.596.579.48 1.247.305 1.684-.429 1.072-1.543 1.157-2.143.999v.454c-.064.399-.917.682-1.886.682-.973 0-1.77-.283-1.83-.686V18H7.106c-.172 0-.249-.214-.249-.386v-3.771h-.54a.31.31 0 0 1-.297-.201.3.3 0 0 1-.02-.125l.214-4.436c.009-.167.15-.3.317-.3h.793z"/><path fill="#FBCC21" d="M16.32 17.301a1.3 1.3 0 0 1-.099-1.928c.202-.266 1.248-.583 2.058.201a1.286 1.286 0 0 1 .124 1.77 1.45 1.45 0 0 1-2.083-.043"/><path fill="#EA7E0F" d="M16.616 17.027a.9.9 0 0 1-.069-1.329c.167-.171.857-.402 1.414.137a.89.89 0 0 1 .086 1.222 1 1 0 0 1-1.431-.03"/><path fill="#FCF7F2" d="m16.449 15.823.261.27.39-.274-.034-.318c-.244.022-.442.116-.519.198a.6.6 0 0 0-.098.124"/><path fill="#925100" d="M17.366 17.169c-1.136-.142-.853-.93-.57-1.312.163-.197.583-.416.99.313.407.733-.112.969-.42.999"/><path fill="#FDE824" d="M16.654 16.492c0 .518.45.66.677.664.172.004.686-.043.669-.665-.017-.62-.506-.93-.686-.93-.171 0-.66.283-.66.93"/><path fill="#FBB107" d="M17.811 16.414c-.077-.038-.192.116-.24.197-.055.099-.137.296-.017.283.12-.008.223-.137.257-.201.03-.077.078-.249 0-.283zm-.814-.488c.052.034 0 .171-.034.231-.043.073-.129.202-.172.12-.043-.077 0-.193.026-.24.039-.051.129-.15.18-.111"/><path fill="#5E2009" d="M16.226 17.537c-.549-.308-.562-1.144-.502-1.521a1.49 1.49 0 0 0 .33 1.727c.986.626 1.8.201 2.083-.09-.707.334-1.23.274-1.911-.116"/><path fill="#E7FFF5" d="m16.551 16.963.065.064a1 1 0 0 0 1.435.03.8.8 0 0 0 .193-.437h-.287c-.086.15-.317.459-.544.514-.193.043-.6-.077-.862-.171"/><path fill="#5C2307" d="M6.429 10.731v-.99H8.03l-.124-.861.124-.056-.184-1.251-.133-.035-.193-1.204 1.29-.236 1.252.592.42-.866 1.298-.184.078.557.158.24-.034-.797 1.157-.159c.086.129.364.369.493.472l.236-.626c.235-.047.754-.141.985-.146.223-.004.343.129.369.193l.227 1.44-.544.759.283 2.168h1.68l.274.356v3.189h-.857V15c-.93.711-.939 1.581-.87 1.894h-1.483a1.15 1.15 0 0 0-1.102.677h-5.16l-.385-.244v-1.222h.321v-.814c0-.3-.257-.523-.321-.6v-.848l-.857-.467V12h.257v-.75c0-.317-.176-.48-.257-.519"/><path fill="#8D8C8E" d="m8.854 6.493-1.187.206.146.69.21-.043.3 1.877-.257.06.128.724 1.187-.214-.248-1.697 1.037 1.238.617-1.47.287 1.706 1.166-.214-.103-.656-.257.043-.279-1.92.253-.043-.133-.698-1.14.175-.66 1.565z"/><path fill="#F4F4F5" d="m8.799 6.167-1.188.206.146.686.206-.043.3 1.877-.257.064.128.72 1.192-.214-.249-1.693 1.037 1.234.617-1.465.288 1.701 1.165-.21-.102-.66-.258.043-.283-1.916.258-.043-.133-.703-1.145.18-.66 1.565z"/><path fill="#8D8C8E" d="m12.231 6.75-.137-.746 1.029-.124.578.943.296-1.093L15 5.593l.086.763h-.24l-.527 1.367.09.613.252-.043.107.677-1.444.261-.094-.677.257-.043-.094-.63-.947-1.183z"/><path fill="#F4F4F5" d="m12.184 6.42-.133-.75 1.029-.12.574.943.3-1.097 1.003-.133.086.758h-.24l-.532 1.372.09.613.257-.043.108.673-1.445.265-.098-.681.257-.043-.094-.626-.943-1.183-.215.052z"/><path fill="#BF5911" fill-rule="evenodd" d="M11.571 9.857h.643v1.286h-.643v-.429H9.643v-.519h.111v-.188h1.817zm-4.714.111H8.77c.364 0 .66.283.66.635v1.911c0 .352-.3.634-.66.634H6.643v-.643h.214v-1.79h-.214v-.644h.214zm.857.746h.857v1.749h-.857zm1.929 1.714h2.571v.857H9.643zm1.933-1.273h-1.44v.63h1.44zM16.5 9.858h-1.286v.857H16.5zm0 2.571h-1.286v.857H16.5zm-2.357-2.455h.643v.908h-.643v-.171h-1.715v-.515h1.715zm-.215 2.884h-1.285v.429h1.285zm-.715-1.714h1.363v.643h-1.363zm.073 2.571h.694v.364h1.448v-.364h.643V15h-.643v-.257H13.98V15h-.694zm-2.546.343h.737v.008h1.166v.022h.214V15H12v-.257h-.523v.582h.827v.532h-.827v.857h1.38v.857h-2.571v-.857h.454v-1.971h-.454v-.678h.454zm-2.473-.343h-.981v.857h.437v2.143H7.5v.857h1.286v-.857h-.317v-.836h.981a.63.63 0 0 0 .621-.634v-.557a.63.63 0 0 0-.621-.63h-.986v-.227h-.197zm1.003 1.029h-.69v.677h.69z" clip-rule="evenodd"/><path fill="#FEAE00" fill-rule="evenodd" d="M6.643 9.857h2.1c.377 0 .686.279.686.617v1.766c0 .343-.309.617-.686.617h-2.1v-.694h.214V10.5h-.214zm1.071.643h.857v1.714h-.857z" clip-rule="evenodd"/><path fill="#FBB200" d="M9.643 9.857h2.571v1.071h-.643V10.5h-.643v.643h.643v.428h-.643v.643h.643V12h.643v.857H9.643v-.643h.428V10.5h-.428zm6.857 0h-1.286v.643h.214v1.714h-.214v.643H16.5v-.643h-.214V10.5h.214zm-3.643 0h1.929v.857h-.643v-.171h-.429v.6h.857v.428h-.857v.6h.214v.686h-1.285v-.686h.214v-1.628h-.428v-.686z"/><path fill="#FEAE00" d="M10.286 13.714h2.571v1.072h-.643v-.214h-.643v.642h.738v.429h-.737v.857h.642v-.643h.643v1.286h-2.571V16.5h.428v-1.928h-.428zm3 1.072v-1.072h2.786v1.072h-.643v-.429h-.24v1.929h.24v.728H14.04v-.728h.232v-1.929h-.343v.429z"/><path fill="#FEAE00" fill-rule="evenodd" d="M7.286 13.714h2.16c.343 0 .626.3.626.669v.591c0 .369-.28.669-.626.669H8.57v.857h.215v.643H7.5V16.5h.214v-2.117h-.428zm1.285.755h.562v.677H8.57z" clip-rule="evenodd"/><path fill="#EA780B" d="M16.363 18.279c-.056.295-.784.527-1.68.527-.892 0-1.62-.232-1.676-.527v-.733c.034-.3.772-.544 1.676-.544.921 0 1.667.248 1.68.557z"/><path fill="#F8A70A" d="M15.943 18.617a3.7 3.7 0 0 1-1.436.189v-.742c.343-.12 1.085-.313 1.239-.137.128.146.18.471.193.69z"/><path fill="#FEC61D" d="M14.683 18.133c.928 0 1.68-.253 1.68-.566s-.752-.566-1.68-.566-1.68.254-1.68.566c0 .313.752.566 1.68.566"/><path fill="#FF851F" d="M14.683 17.987c.615 0 1.114-.188 1.114-.42s-.499-.42-1.114-.42-1.114.188-1.114.42.498.42 1.114.42"/><path fill="#FBE82D" d="M14.683 17.837c.398 0 .72-.142.72-.317s-.322-.317-.72-.317-.72.142-.72.317.322.317.72.317"/><path fill="#FF9A01" d="M17.049 16.813a.18.18 0 1 0 0-.36.18.18 0 0 0 0 .36M17.452 16.17a.18.18 0 1 0 0-.36.18.18 0 0 0 0 .36"/></g><defs><clipPath id="a"><path fill="#fff" d="M0 0h24v24H0z"/></clipPath></defs></svg>
